packages/gestalt-icons-android/vr-theme/ic_vr_timer_gestalt.svg

<svg width="24" height="24" viewBox="0 0 24 24" fill="none" xmlns="http://www.w3.org/2000/svg">
<path d="M13 5V12.4142L9.70711 15.7071L8.29289 14.2929L11 11.5858V5H13Z" fill="black"/>
<path fill-rule="evenodd" clip-rule="evenodd" d="M15 1.41406C16.5015 1.83874 17.8725 2.57427 19.0391 3.54673L20.2929 2.29289L21.7071 3.70711L20.4533 4.96094C22.0434 6.86844 23 9.3225 23 12C23 18.0751 18.0751 23 12 23C5.92487 23 1 18.0751 1 12C1 6.96489 4.38299 2.71992 9 1.41407V0H15V1.41406ZM3 12C3 7.02944 7.02944 3 12 3C16.9706 3 21 7.02944 21 12C21 16.9706 16.9706 21 12 21C7.02944 21 3 16.9706 3 12Z" fill="black"/>
</svg>

<svg xmlns="http://www.w3.org/2000/svg" width="24" height="24"><path d="M13 5v7.41l-3.3 3.3-1.4-1.42 2.7-2.7V5zm2-3.59q2.27.66 4.04 2.14l1.25-1.26 1.42 1.42-1.26 1.25A11 11 0 1 1 9 1.41V0h6zM12 21a9 9 0 1 0 0-18 9 9 0 0 0 0 18"/></svg>
